svg/furkot/freepik/industry.svg

<svg viewBox="0 0 512 512" xmlns="http://www.w3.org/2000/svg"><path d="m288.001 176-162.667 108.448-18.667-284.448h-46.219l-17.781 512h426.666v-336l-181.332 112.001zm-42.667 261.333h-85.333v-85.334h85.333zm128-85.334v85.334h-85.333v-85.334z"/></svg>

<svg xmlns="http://www.w3.org/2000/svg" viewBox="0 0 512 512"><path d="M288.001 176L125.334 284.448 106.667 0H60.448L42.667 512H469.333V176L288.001 288.001V176ZM245.334 437.333H160.001V351.999H245.334V437.333ZM373.334 351.999V437.333H288.001V351.999H373.334Z"/></svg>
